X:334
%%etbk:tnset id:100,pos:5,rep:3x,ant:
%%etbk:pldat 2016-06-21T15:33,2016-05-04T16:16,2016-03-11T15:58,2016-03-08T16:39,2016-03-07T18:19,2016-02-08T18:22,2015-11-04T16:41,2015-10-28T16:00,2015-10-26T18:47,2015-10-22T18:51,2015-10-08T18:41,2015-06-16T16:51,2015-03-13T18:11,2015-03-09T18:29,2015-03-04T16:38,2015-02-11T17:22,2014-11-05T18:50,2014-11-04T16:02,2014-11-02T13:53,2014-08-19T18:42,2014-06-24T18:39,2014-03-05T19:12,2014-03-01T17:22,2014-02-24T18:08,2013-10-29T15:47,2013-10-27T14:44,2013-10-17T19:21,2013-10-13T15:59,2013-10-08T16:32
T: Top Of The Cork Road
T: Father O'Flynn
Z: Piano Box Version by Martin Fleischmann
H: Created 2013-02-19 /  Last Modified 2013-02-19
M: 6/8
L: 1/8
R: jig
K: Dmaj
|: "D"!4!d!1!A!2!F !1!D!2!F!1!A | !4!ded !3!cBA | !4!d!3!c!1!d !2!efg | "A"!3!f!1!d!3!f !5!e!3!c!1!A |
"D"!4!d!1!A!2!F !1!D!2!F!1!A | !4!ded !3!cBA | !4!d!3!c!1!d "A"!2!efg | "D"!3!f!1!d!2!c !1!d3:|
|: "D"{g}!3!fdf fg!5!a | "A"!4!e!2!c!1!A !1!AB!3!c | "G"!4!dcd !2!Bed | "A"!3!cAA A2c |
"G"!2!B!1!GB !2!Bcd | "D"!1!A!2!F!1!D !1!D!2!F!1!A | !4!d!3!c!1!d "A"!2!efg | "D"!3!f!1!d!2!c !1!d3:||


